svgs/light/music-note.svg

<svg xmlns="http://www.w3.org/2000/svg" viewBox="0 0 384 512"><!-- Font Awesome Pro 6.0.0-alpha2 by @fontawesome - https://fontawesome.com License - https://fontawesome.com/license (Commercial License) --><path d="M341.999 1.611L213.375 33.487C200.75 37.737 192 49.987 192 63.988V376.121C171.625 361.246 143.375 351.996 112 351.996C50.125 351.996 0 387.872 0 431.998S50.125 512 112 512S224 476.124 224 431.998V191.991L362.125 156.615C375.125 152.24 384 139.99 384 126.24V31.987C384 21.737 379 12.111 370.75 6.111C362.375 0.111 351.75 -1.639 341.999 1.611ZM112 479.999C64.875 479.999 32 454.748 32 431.998S64.875 383.997 112 383.997S192 409.247 192 431.998S159.125 479.999 112 479.999ZM352 126.24L224 158.24V63.988H223.5V63.863L352 31.987V126.24Z"/></svg>

<svg xmlns="http://www.w3.org/2000/svg" viewBox="0 0 384 512"><!--! Font Awesome Pro 6.3.0 by @fontawesome - https://fontawesome.com License - https://fontawesome.com/license (Commercial License) Copyright 2023 Fonticons, Inc. --><path d="M341.1 1.611l-128.6 31.88C200.8 37.74 192 49.99 192 63.99v312.1c-20.38-14.88-48.63-24.13-80-24.13c-61.88 0-112 35.88-112 80S50.13 512 112 512s112-35.88 112-80V191.1l138.1-35.38C375.1 152.2 384 139.1 384 126.2V31.98c0-10.25-4.938-19.81-13.19-25.81C362.4 .1626 351.8-1.639 341.1 1.611zM112 479.1c-47.13 0-80-25.25-80-48s32.88-47.1 80-47.1s80 25.25 80 48S159.1 479.1 112 479.1zM352 126.2l-128 32l.0469-94.17l-.5469-.0809L352 31.96V126.2z"/></svg>
